packages/sources/icons/src/vitamix/shopping-cart-line.svg

<svg width="16" height="16" viewBox="0 0 16 16" xmlns="http://www.w3.org/2000/svg"><path d="M2.66663 1.33334C2.97089 1.33334 3.233 1.5386 3.31036 1.82651L3.32577 1.90013L3.64396 3.99801L14 3.99789C14.3997 3.99789 14.7031 4.34479 14.6634 4.73113L14.6508 4.80884L13.3204 10.8106C13.2584 11.0904 13.0258 11.2962 12.7467 11.3286L12.6696 11.333H3.97978C3.67551 11.333 3.41341 11.1278 3.33604 10.8399L3.32063 10.7662L2.09396 2.66668H0.666626V1.33334H2.66663ZM3.99996 14C3.99996 14.7364 4.59691 15.3333 5.33329 15.3333C6.06967 15.3333 6.66663 14.7364 6.66663 14C6.66663 13.2636 6.06967 12.6667 5.33329 12.6667C4.59691 12.6667 3.99996 13.2636 3.99996 14ZM9.99996 14C9.99996 14.7364 10.5969 15.3333 11.3333 15.3333C12.0697 15.3333 12.6666 14.7364 12.6666 14C12.6666 13.2636 12.0697 12.6667 11.3333 12.6667C10.5969 12.6667 9.99996 13.2636 9.99996 14ZM3.84594 5.33135L4.55328 10H12.1353L13.1699 5.33135H3.84594Z"/></svg>

<svg width="16" height="16" xmlns="http://www.w3.org/2000/svg"><path d="M2.667 1.333c.304 0 .566.206.643.494l.016.073.318 2.098H14c.4 0 .703.347.663.733l-.012.078-1.33 6.002a.667.667 0 0 1-.574.518l-.077.004H3.98a.667.667 0 0 1-.644-.493l-.015-.074-1.227-8.1H.667V1.334h2ZM4 14a1.333 1.333 0 1 0 2.667 0A1.333 1.333 0 0 0 4 14Zm6 0a1.333 1.333 0 1 0 2.667 0A1.333 1.333 0 0 0 10 14ZM3.846 5.331 4.553 10h7.582l1.035-4.669H3.846Z"/></svg>
